src/epub/images/titlepage.svg

<?xml version="1.0" encoding="utf-8"?>
<svg xmlns="http://www.w3.org/2000/svg" xmlns:svg="http://www.w3.org/2000/svg" version="1.1" viewBox="0 0 1400 340">
	<title>The titlepage for the Standard Ebooks edition of White Fang, by Jack London</title>
	<g>
		<path d="m 435.41593,130 19.46199,0 21.9883,-77.192984 -19.46198,0 -13.19299,52.959064 -0.46783,0 -14.03509,-52.959064 -13.28655,0 -14.03509,52.959064 -0.46784,0 -13.19298,-52.959064 -19.55555,0 L 391.15862,130 410.71418,130 423.06505,86.678362 435.41593,130 Z"/>
		<path d="m 503.67616,99.029239 24.88889,0 0,30.970761 17.59065,0 0,-77.192984 -17.59065,0 0,30.783626 -24.88889,0 0,-30.783626 -17.59064,0 0,77.192984 17.59064,0 0,-30.970761 z"/>
		<path d="m 579.94809,52.807016 -17.59064,0 0,77.192984 17.59064,0 0,-77.192984 z"/>
		<path d="m 586.79751,68.245613 18.33918,0 0,61.754387 17.59064,0 0,-61.754387 18.33918,0 0,-15.438597 -54.269,0 0,15.438597 z"/>
		<path d="m 696.56504,52.807016 -44.16374,0 0,77.192984 44.16374,0 0,-15.4386 -26.5731,0 0,-15.532161 25.4503,0 0,-15.438597 -25.4503,0 0,-15.345029 26.5731,0 0,-15.438597 z"/>
		<path d="m 786.89399,52.807016 -44.63158,0 0,77.192984 17.59065,0 0,-30.970761 24.98245,0 0,-15.438597 -24.98245,0 0,-15.345029 27.04093,0 0,-15.438597 z"/>
		<path d="m 836.1747,52.807016 -16.2807,0 L 788.73611,130 l 18.90058,0 5.70761,-15.4386 29.38011,0 5.7076,15.4386 18.90059,0 -31.1579,-77.192984 z m 0.56141,46.31579 -17.40351,0 8.60819,-22.45614 0.18713,0 8.60819,22.45614 z"/>
		<path d="m 892.84283,82.093566 0.18714,0 L 923.72003,130 l 17.59064,0 0,-77.192984 -17.59064,0 0,47.906434 -0.18714,0 -30.69006,-47.906434 -17.59064,0 0,77.192984 17.59064,0 0,-47.906434 z"/>
		<path d="m 1027.356,86.771929 -35.64915,0 0,13.567251 17.77775,0 c 0,9.45029 -8.3275,14.87719 -16.74851,14.87719 -10.8538,0 -19.64912,-10.66666 -19.64912,-23.766078 0,-13.380117 8.79532,-24.140352 19.64912,-24.140352 6.83041,0 12.72511,2.713451 17.21641,9.918129 l 11.5087,-12.631579 c -6.7368,-8.140351 -16.1871,-13.192983 -29.75435,-13.192983 -21.7076,0 -37.61403,17.871346 -37.61403,40.046785 0,22.081868 16.8421,39.953218 37.61403,39.953218 15.15785,0 31.43855,-8.32749 35.64915,-27.88304 l 0,-16.748541 z"/>
	</g>
	<g>
		<path d="m 432.67928,232.10526 -13.19298,0 0,38.17544 c 0,5.82456 -2.8772,8.14035 -6.66667,8.14035 -3.36842,0 -7.50877,-3.92982 -7.50877,-3.92982 l -4.21053,11.01754 c 0,0 5.26316,5.54386 13.54386,5.54386 11.57895,0 18.03509,-6.03509 18.03509,-17.40351 l 0,-41.54386 z"/>
		<path d="m 474.78454,232.10526 -12.21052,0 L 439.2056,290 l 14.17543,0 4.28071,-11.57895 22.03508,0 4.2807,11.57895 14.17544,0 -23.36842,-57.89474 z m 0.42105,34.73685 -13.05263,0 L 468.6091,250 l 0.14035,0 6.45614,16.84211 z"/>
		<path d="m 533.95669,278.07018 c -13.26316,0 -19.08772,-9.26316 -19.08772,-17.05264 0,-7.71929 5.82456,-16.98245 19.08772,-16.98245 6.73684,0 11.36842,3.57895 11.36842,3.57895 l 5.61404,-11.22807 c 0,0 -6.45614,-5.33334 -19.01755,-5.33334 -16.42105,0 -31.36842,13.47369 -31.36842,30.10527 0,16.5614 15.01754,29.89473 31.36842,29.89473 12.56141,0 19.01755,-5.33333 19.01755,-5.33333 l -5.61404,-11.22807 c 0,0 -4.63158,3.57895 -11.36842,3.57895 z"/>
		<path d="m 613.75713,290 -26.94737,-30.45614 23.29824,-27.4386 -16,0 -19.85964,23.64913 0,-23.64913 -13.19299,0 0,57.89474 13.19299,0 0,-24.5614 21.33333,24.5614 18.17544,0 z"/>
		<path d="m 658.6727,232.10526 -13.19298,0 0,57.89474 33.12281,0 0,-11.57895 -19.92983,0 0,-46.31579 z"/>
		<path d="m 687.49396,261.01754 c 0,16.91228 12.07018,30.03509 29.19298,30.03509 16.63158,0 29.12281,-13.12281 29.12281,-30.03509 0,-16.91228 -13.05263,-29.96491 -29.12281,-29.96491 -15.92982,0 -29.19298,13.05263 -29.19298,29.96491 z m 14.24562,0 c 0,-8.63157 4.77193,-17.26315 14.94736,-17.26315 10.24562,0 14.8772,8.63158 14.8772,17.26315 0,8.63158 -4.35088,17.26316 -14.8772,17.26316 -10.80701,0 -14.94736,-8.63158 -14.94736,-17.26316 z"/>
		<path d="m 769.82402,254.07018 0.14035,0 23.01755,35.92982 13.19298,0 0,-57.89474 -13.19298,0 0,35.92983 -0.14035,0 -23.01755,-35.92983 -13.19298,0 0,57.89474 13.19298,0 0,-35.92982 z"/>
		<path d="m 819.608,232.10526 0,57.89474 16.77193,0 c 15.92982,0 29.19298,-12.07018 29.19298,-28.98246 0,-16.8421 -13.33333,-28.91228 -29.19298,-28.91228 l -16.77193,0 z m 13.19298,46.10527 0,-34.31579 2.03509,0 c 9.82456,0 16.49123,7.50877 16.49123,17.19298 -0.0702,9.68421 -6.73684,17.12281 -16.49123,17.12281 l -2.03509,0 z"/>
		<path d="m 873.82071,261.01754 c 0,16.91228 12.07018,30.03509 29.19299,30.03509 16.63157,0 29.1228,-13.12281 29.1228,-30.03509 0,-16.91228 -13.05263,-29.96491 -29.1228,-29.96491 -15.92983,0 -29.19299,13.05263 -29.19299,29.96491 z m 14.24562,0 c 0,-8.63157 4.77193,-17.26315 14.94737,-17.26315 10.24561,0 14.87719,8.63158 14.87719,17.26315 0,8.63158 -4.35088,17.26316 -14.87719,17.26316 -10.80702,0 -14.94737,-8.63158 -14.94737,-17.26316 z"/>
		<path d="m 956.15078,254.07018 0.14035,0 23.01754,35.92982 13.19298,0 0,-57.89474 -13.19298,0 0,35.92983 -0.14035,0 -23.01754,-35.92983 -13.19299,0 0,57.89474 13.19299,0 0,-35.92982 z"/>
	</g>
</svg>

<?xml version="1.0" encoding="utf-8"?>
<svg xmlns="http://www.w3.org/2000/svg" xmlns:svg="http://www.w3.org/2000/svg" version="1.1" viewBox="0 0 1400 340">
	<title>The titlepage for the Standard Ebooks edition of White Fang, by Jack London</title>
	<g aria-label="WHITE FANG">
		<path d="m 435.41593,130 h 19.46199 l 21.9883,-77.192984 h -19.46198 l -13.19299,52.959064 h -0.46783 L 429.70833,52.807016 h -13.28655 l -14.03509,52.959064 h -0.46784 L 388.72587,52.807016 H 369.17032 L 391.15862,130 h 19.55556 l 12.35087,-43.321638 z"/>
		<path d="m 503.67616,99.029239 h 24.88889 V 130 H 546.1557 V 52.807016 H 528.56505 V 83.590642 H 503.67616 V 52.807016 H 486.08552 V 130 h 17.59064 z"/>
		<path d="M 579.94809,52.807016 H 562.35745 V 130 h 17.59064 z"/>
		<path d="m 586.79751,68.245613 h 18.33918 V 130 h 17.59064 V 68.245613 h 18.33918 V 52.807016 h -54.269 z"/>
		<path d="M 696.56504,52.807016 H 652.4013 V 130 h 44.16374 v -15.4386 h -26.5731 V 99.029239 h 25.4503 V 83.590642 h -25.4503 V 68.245613 h 26.5731 z"/>
		<path d="M 786.89399,52.807016 H 742.26241 V 130 h 17.59065 V 99.029239 h 24.98245 V 83.590642 H 759.85306 V 68.245613 h 27.04093 z"/>
		<path d="M 836.1747,52.807016 H 819.894 L 788.73611,130 h 18.90058 l 5.70761,-15.4386 h 29.38011 L 848.43201,130 h 18.90059 z m 0.56141,46.31579 H 819.3326 l 8.60819,-22.45614 h 0.18713 z"/>
		<path d="m 892.84283,82.093566 h 0.18714 L 923.72003,130 h 17.59064 V 52.807016 h -17.59064 v 47.906434 h -0.18714 L 892.84283,52.807016 H 875.25219 V 130 h 17.59064 z"/>
		<path d="m 1027.356,86.771929 h -35.64915 v 13.567251 h 17.77775 c 0,9.45029 -8.3275,14.87719 -16.74851,14.87719 -10.8538,0 -19.64912,-10.66666 -19.64912,-23.766078 0,-13.380117 8.79532,-24.140352 19.64912,-24.140352 6.83041,0 12.72511,2.713451 17.21641,9.918129 l 11.5087,-12.631579 c -6.7368,-8.140351 -16.1871,-13.192983 -29.75435,-13.192983 -21.7076,0 -37.61403,17.871346 -37.61403,40.046785 0,22.081868 16.8421,39.953218 37.61403,39.953218 15.15785,0 31.43855,-8.32749 35.64915,-27.88304 z"/>
	</g>
	<g aria-label="JACK LONDON">
		<path d="M 432.67928,232.10526 H 419.4863 v 38.17544 c 0,5.82456 -2.8772,8.14035 -6.66667,8.14035 -3.36842,0 -7.50877,-3.92982 -7.50877,-3.92982 l -4.21053,11.01754 c 0,0 5.26316,5.54386 13.54386,5.54386 11.57895,0 18.03509,-6.03509 18.03509,-17.40351 z"/>
		<path d="M 474.78454,232.10526 H 462.57402 L 439.2056,290 h 14.17543 l 4.28071,-11.57895 h 22.03508 L 483.97752,290 h 14.17544 z m 0.42105,34.73685 H 462.15296 L 468.6091,250 h 0.14035 z"/>
		<path d="m 533.95669,278.07018 c -13.26316,0 -19.08772,-9.26316 -19.08772,-17.05264 0,-7.71929 5.82456,-16.98245 19.08772,-16.98245 6.73684,0 11.36842,3.57895 11.36842,3.57895 l 5.61404,-11.22807 c 0,0 -6.45614,-5.33334 -19.01755,-5.33334 -16.42105,0 -31.36842,13.47369 -31.36842,30.10527 0,16.5614 15.01754,29.89473 31.36842,29.89473 12.56141,0 19.01755,-5.33333 19.01755,-5.33333 l -5.61404,-11.22807 c 0,0 -4.63158,3.57895 -11.36842,3.57895 z"/>
		<path d="m 613.75713,290 -26.94737,-30.45614 23.29824,-27.4386 h -16 l -19.85964,23.64913 V 232.10526 H 561.05537 V 290 h 13.19299 V 265.4386 L 595.58169,290 Z"/>
		<path d="M 658.6727,232.10526 H 645.47972 V 290 h 33.12281 V 278.42105 H 658.6727 Z"/>
		<path d="m 687.49396,261.01754 c 0,16.91228 12.07018,30.03509 29.19298,30.03509 16.63158,0 29.12281,-13.12281 29.12281,-30.03509 0,-16.91228 -13.05263,-29.96491 -29.12281,-29.96491 -15.92982,0 -29.19298,13.05263 -29.19298,29.96491 z m 14.24562,0 c 0,-8.63157 4.77193,-17.26315 14.94736,-17.26315 10.24562,0 14.8772,8.63158 14.8772,17.26315 0,8.63158 -4.35088,17.26316 -14.8772,17.26316 -10.80701,0 -14.94736,-8.63158 -14.94736,-17.26316 z"/>
		<path d="m 769.82402,254.07018 h 0.14035 L 792.98192,290 h 13.19298 v -57.89474 h -13.19298 v 35.92983 h -0.14035 L 769.82402,232.10526 H 756.63104 V 290 h 13.19298 z"/>
		<path d="M 819.608,232.10526 V 290 h 16.77193 c 15.92982,0 29.19298,-12.07018 29.19298,-28.98246 0,-16.8421 -13.33333,-28.91228 -29.19298,-28.91228 z m 13.19298,46.10527 v -34.31579 h 2.03509 c 9.82456,0 16.49123,7.50877 16.49123,17.19298 -0.0702,9.68421 -6.73684,17.12281 -16.49123,17.12281 z"/>
		<path d="m 873.82071,261.01754 c 0,16.91228 12.07018,30.03509 29.19299,30.03509 16.63157,0 29.1228,-13.12281 29.1228,-30.03509 0,-16.91228 -13.05263,-29.96491 -29.1228,-29.96491 -15.92983,0 -29.19299,13.05263 -29.19299,29.96491 z m 14.24562,0 c 0,-8.63157 4.77193,-17.26315 14.94737,-17.26315 10.24561,0 14.87719,8.63158 14.87719,17.26315 0,8.63158 -4.35088,17.26316 -14.87719,17.26316 -10.80702,0 -14.94737,-8.63158 -14.94737,-17.26316 z"/>
		<path d="m 956.15078,254.07018 h 0.14035 L 979.30867,290 h 13.19298 v -57.89474 h -13.19298 v 35.92983 h -0.14035 L 956.15078,232.10526 H 942.95779 V 290 h 13.19299 z"/>
	</g>
</svg>
